src/pos-icons/watch-import.svg

<svg height="24" viewBox="0 0 24 24" width="24" xmlns="http://www.w3.org/2000/svg"><path d="m2 11h5l-2.5-2.5 1.42-1.42 4.92 4.92-4.92 4.92-1.42-1.42 2.5-2.5h-5zm10 7a6 6 0 0 0 6-6 6 6 0 0 0 -6-6c-1.4 0-2.69.5-3.71 1.29l-1.42-1.42.18-.14.95-5.73h8l.95 5.73c1.86 1.46 3.05 3.72 3.05 6.27 0 2.54-1.19 4.81-3.05 6.27l-.95 5.73h-8l-.95-5.73-.18-.14 1.42-1.42c1.02.79 2.31 1.29 3.71 1.29z"/></svg>

<?xml version="1.0" encoding="UTF-8"?><!DOCTYPE svg PUBLIC "-//W3C//DTD SVG 1.1//EN" "http://www.w3.org/Graphics/SVG/1.1/DTD/svg11.dtd"><svg xmlns="http://www.w3.org/2000/svg" xmlns:xlink="http://www.w3.org/1999/xlink" version="1.1" id="mdi-watch-import" width="24" height="24" viewBox="0 0 24 24"><path d="M2,11H7L4.5,8.5L5.92,7.08L10.84,12L5.92,16.92L4.5,15.5L7,13H2V11M12,18A6,6 0 0,0 18,12A6,6 0 0,0 12,6C10.6,6 9.31,6.5 8.29,7.29L6.87,5.87L7.05,5.73L8,0H16L16.95,5.73C18.81,7.19 20,9.45 20,12C20,14.54 18.81,16.81 16.95,18.27L16,24H8L7.05,18.27L6.87,18.13L8.29,16.71C9.31,17.5 10.6,18 12,18Z" /></svg>
